public/menu.svg

<svg width="41" height="41" viewBox="0 0 41 41" fill="none" xmlns="http://www.w3.org/2000/svg">
<path d="M4.175 34C3.48333 34 2.92708 33.7773 2.50625 33.332C2.08542 32.8867 1.875 32.3284 1.875 31.657C1.875 30.9857 2.08542 30.4417 2.50625 30.025C2.92708 29.6083 3.48333 29.4 4.175 29.4H37.725C38.3842 29.4 38.9323 29.6112 39.3694 30.0337C39.8065 30.4563 40.025 31.0032 40.025 31.6746C40.025 32.3459 39.8065 32.9013 39.3694 33.3408C38.9323 33.7803 38.3842 34 37.725 34H4.175ZM4.175 22.55C3.48333 22.55 2.92708 22.3273 2.50625 21.882C2.08542 21.4367 1.875 20.895 1.875 20.257C1.875 19.5857 2.08542 19.0417 2.50625 18.625C2.92708 18.2083 3.48333 18 4.175 18H37.725C38.3842 18 38.9323 18.2112 39.3694 18.6337C39.8065 19.0563 40.025 19.6032 40.025 20.2746C40.025 20.9126 39.8065 21.4513 39.3694 21.8908C38.9323 22.3303 38.3842 22.55 37.725 22.55H4.175ZM4.175 11.1C3.48333 11.1 2.92708 10.8857 2.50625 10.457C2.08542 10.0284 1.875 9.4617 1.875 8.757C1.875 8.119 2.08542 7.58333 2.50625 7.15C2.92708 6.71667 3.48333 6.5 4.175 6.5H37.725C38.3842 6.5 38.9323 6.71958 39.3694 7.15875C39.8065 7.59795 40.025 8.13655 40.025 8.77455C40.025 9.47925 39.8065 10.043 39.3694 10.4658C38.9323 10.8886 38.3842 11.1 37.725 11.1H4.175Z" fill="black"/>
</svg>

<svg width="41" height="41" fill="none" xmlns="http://www.w3.org/2000/svg"><path d="M4.175 34c-.692 0-1.248-.223-1.669-.668-.42-.445-.631-1.004-.631-1.675s.21-1.215.631-1.632c.421-.417.977-.625 1.669-.625h33.55c.66 0 1.207.211 1.644.634.438.422.656.97.656 1.64 0 .672-.218 1.227-.656 1.667-.437.44-.985.659-1.644.659H4.175zm0-11.45c-.692 0-1.248-.223-1.669-.668-.42-.445-.631-.987-.631-1.625 0-.671.21-1.215.631-1.632.421-.417.977-.625 1.669-.625h33.55c.66 0 1.207.211 1.644.634.438.422.656.97.656 1.64 0 .639-.218 1.177-.656 1.617-.437.44-.985.659-1.644.659H4.175zm0-11.45c-.692 0-1.248-.214-1.669-.643-.42-.429-.631-.995-.631-1.7 0-.638.21-1.174.631-1.607.421-.433.977-.65 1.669-.65h33.55c.66 0 1.207.22 1.644.659.438.439.656.978.656 1.616 0 .704-.218 1.268-.656 1.69-.437.424-.985.635-1.644.635H4.175z" fill="#000"/></svg>
